source/img/icon_bus.svg

<svg width="19" height="20" viewBox="0 0 19 20" fill="none" xmlns="http://www.w3.org/2000/svg">
<g clip-path="url(#clip0_1369_3287)">
<path d="M4.83504 13.5714C4.83504 13.1771 4.68276 12.8404 4.3782 12.5614C4.07364 12.2824 3.70613 12.1429 3.27569 12.1429C2.84524 12.1429 2.47774 12.2824 2.17318 12.5614C1.86862 12.8404 1.71633 13.1771 1.71633 13.5714C1.71633 13.9658 1.86862 14.3025 2.17318 14.5815C2.47774 14.8605 2.84524 15 3.27569 15C3.70613 15 4.07364 14.8605 4.3782 14.5815C4.68276 14.3025 4.83504 13.9658 4.83504 13.5714ZM17.3099 13.5714C17.3099 13.1771 17.1576 12.8404 16.853 12.5614C16.5485 12.2824 16.181 12.1429 15.7505 12.1429C15.3201 12.1429 14.9526 12.2824 14.648 12.5614C14.3434 12.8404 14.1912 13.1771 14.1912 13.5714C14.1912 13.9658 14.3434 14.3025 14.648 14.5815C14.9526 14.8605 15.3201 15 15.7505 15C16.181 15 16.5485 14.8605 16.853 14.5815C17.1576 14.3025 17.3099 13.9658 17.3099 13.5714ZM16.7495 9.15179L15.8723 4.86607C15.8317 4.69494 15.7404 4.55543 15.5982 4.44754C15.4561 4.33966 15.2916 4.28571 15.1048 4.28571H3.92136C3.73456 4.28571 3.5701 4.33966 3.42797 4.44754C3.28584 4.55543 3.19447 4.69494 3.15386 4.86607L2.27673 9.15179C2.23612 9.375 2.29297 9.57217 2.44728 9.7433C2.60159 9.91443 2.80057 10 3.04422 10H15.982C16.2256 10 16.4246 9.91443 16.5789 9.7433C16.7332 9.57217 16.7901 9.375 16.7495 9.15179ZM13.9962 2.32143C13.9962 2.17262 13.9394 2.04613 13.8257 1.94196C13.712 1.8378 13.5739 1.78571 13.4115 1.78571H5.61472C5.45228 1.78571 5.31422 1.8378 5.20051 1.94196C5.08681 2.04613 5.02996 2.17262 5.02996 2.32143C5.02996 2.47024 5.08681 2.59673 5.20051 2.70089C5.31422 2.80506 5.45228 2.85714 5.61472 2.85714H13.4115C13.5739 2.85714 13.712 2.80506 13.8257 2.70089C13.9394 2.59673 13.9962 2.47024 13.9962 2.32143ZM18.8692 10.4129V17.1429H17.3099V18.5714C17.3099 18.9658 17.1576 19.3025 16.853 19.5815C16.5485 19.8605 16.181 20 15.7505 20C15.3201 20 14.9526 19.8605 14.648 19.5815C14.3434 19.3025 14.1912 18.9658 14.1912 18.5714V17.1429H4.83504V18.5714C4.83504 18.9658 4.68276 19.3025 4.3782 19.5815C4.07364 19.8605 3.70613 20 3.27569 20C2.84524 20 2.47774 19.8605 2.17318 19.5815C1.86862 19.3025 1.71633 18.9658 1.71633 18.5714V17.1429H0.156982V10.4129C0.156982 9.57961 0.258503 8.75 0.461543 7.92411L1.71633 2.85714C1.78943 2.27679 2.18536 1.76711 2.90412 1.32812C3.62289 0.889137 4.55687 0.558036 5.70608 0.334821C6.85529 0.111607 8.1243 0 9.5131 0C10.9019 0 12.1709 0.111607 13.3201 0.334821C14.4693 0.558036 15.4033 0.889137 16.1221 1.32812C16.8408 1.76711 17.2368 2.27679 17.3099 2.85714L18.589 7.92411C18.7758 8.68304 18.8692 9.51265 18.8692 10.4129Z" fill="#1D2E5B"/>
</g>
<defs>
<clipPath id="clip0_1369_3287">
<rect width="18.72" height="20" fill="white" transform="translate(0.154053)"/>
</clipPath>
</defs>
</svg>

<svg width="19" height="20" fill="none" xmlns="http://www.w3.org/2000/svg"><g clip-path="url(#a)"><path d="M4.835 13.571c0-.394-.152-.73-.457-1.01a1.574 1.574 0 0 0-1.102-.418c-.43 0-.798.14-1.103.418a1.321 1.321 0 0 0-.457 1.01c0 .395.153.732.457 1.01.305.28.672.419 1.103.419.43 0 .798-.14 1.102-.418.305-.28.457-.616.457-1.01Zm12.475 0a1.32 1.32 0 0 0-.457-1.01 1.574 1.574 0 0 0-1.103-.418c-.43 0-.797.14-1.102.418a1.32 1.32 0 0 0-.457 1.01c0 .395.152.732.457 1.01.305.28.672.419 1.103.419.43 0 .798-.14 1.102-.418.305-.28.457-.616.457-1.01Zm-.56-4.42-.878-4.285a.72.72 0 0 0-.274-.418.794.794 0 0 0-.493-.162H3.92a.794.794 0 0 0-.493.162.72.72 0 0 0-.274.418l-.877 4.286c-.04.223.016.42.17.591a.767.767 0 0 0 .597.257h12.938a.767.767 0 0 0 .597-.257.664.664 0 0 0 .17-.591Zm-2.754-6.83a.496.496 0 0 0-.17-.379.591.591 0 0 0-.415-.156H5.615c-.163 0-.3.052-.414.156a.496.496 0 0 0-.171.38c0 .148.057.275.17.379a.591.591 0 0 0 .415.156h7.796c.163 0 .301-.052.415-.156a.496.496 0 0 0 .17-.38Zm4.873 8.092v6.73h-1.56v1.428c0 .395-.151.731-.456 1.01A1.574 1.574 0 0 1 15.75 20c-.43 0-.797-.14-1.102-.419a1.32 1.32 0 0 1-.457-1.01v-1.428H4.835v1.428c0 .395-.152.731-.457 1.01A1.574 1.574 0 0 1 3.276 20c-.43 0-.798-.14-1.103-.419a1.321 1.321 0 0 1-.457-1.01v-1.428H.157v-6.73c0-.833.102-1.663.305-2.489l1.254-5.067c.073-.58.47-1.09 1.188-1.529C3.623.89 4.557.558 5.706.335 6.856.112 8.124 0 9.513 0c1.389 0 2.658.112 3.807.335 1.15.223 2.083.554 2.802.993.719.44 1.115.949 1.188 1.53l1.279 5.066c.187.759.28 1.589.28 2.489Z" fill="#1D2E5B"/></g><defs><clipPath id="a"><path fill="#fff" transform="translate(.154)" d="M0 0h18.72v20H0z"/></clipPath></defs></svg>
